src/assets/bold/lm-circle-area-bold.svg

<svg width="24" height="24" viewBox="0 0 24 24" fill="none" xmlns="http://www.w3.org/2000/svg" fill="currentColor">
<path d="M6.58319 3.89317C8.18657 2.82183 10.0716 2.25 12 2.25C14.585 2.25273 17.0634 3.28084 18.8913 5.10872C20.7192 6.93661 21.7473 9.41498 21.75 12C21.75 13.9284 21.1782 15.8134 20.1068 17.4168C19.0355 19.0202 17.5127 20.2699 15.7312 21.0078C13.9496 21.7458 11.9892 21.9389 10.0979 21.5627C8.20656 21.1865 6.46928 20.2579 5.10571 18.8943C3.74215 17.5307 2.81355 15.7934 2.43735 13.9021C2.06114 12.0108 2.25422 10.0504 2.99218 8.26884C3.73013 6.48726 4.97982 4.96451 6.58319 3.89317ZM11.5733 20.239C11.7152 20.2463 11.8574 20.25 12 20.25C14.1873 20.2475 16.2843 19.3775 17.8309 17.8309C19.3775 16.2843 20.2475 14.1873 20.25 12C20.25 11.8574 20.2463 11.7152 20.239 11.5733L11.5733 20.239ZM9.75196 19.9378L19.9378 9.75196C19.704 8.92633 19.3415 8.13776 18.8596 7.41655C18.6903 7.16308 18.5076 6.92006 18.3126 6.68836L6.68837 18.3126C6.92007 18.5076 7.16309 18.6903 7.41655 18.8596C8.13776 19.3415 8.92634 19.704 9.75196 19.9378ZM4.378 15.1571C4.69223 15.9158 5.11612 16.6189 5.63263 17.2459L17.2459 5.63262C16.6189 5.11612 15.9158 4.69223 15.1571 4.37799C14.7497 4.20924 14.3313 4.07417 13.9059 3.97317C13.8992 3.99502 13.8914 4.01659 13.8826 4.0378C13.8448 4.12884 13.7895 4.21156 13.7198 4.28121L4.28104 13.7199C4.19422 13.8068 4.0883 13.8701 3.97317 13.9059C4.07417 14.3313 4.20925 14.7497 4.378 15.1571ZM3.75099 12.1275L12.1275 3.75098C11.5474 3.74201 10.9652 3.79421 10.3905 3.90852C8.79017 4.22685 7.32016 5.01259 6.16637 6.16637C5.01259 7.32015 4.22685 8.79016 3.90853 10.3905C3.79421 10.9652 3.74202 11.5474 3.75099 12.1275Z" fill="black"/>
</svg>

<svg xmlns="http://www.w3.org/2000/svg" width="24" height="24" fill="currentColor" viewBox="0 0 24 24">
  <path d="M6.583 3.893A9.75 9.75 0 0 1 12 2.25 9.76 9.76 0 0 1 21.75 12 9.75 9.75 0 1 1 6.583 3.893Zm4.99 16.346a8.26 8.26 0 0 0 8.666-8.666l-8.666 8.666Zm-1.821-.301L19.938 9.752a8.249 8.249 0 0 0-1.625-3.064L6.688 18.313a8.23 8.23 0 0 0 3.064 1.625Zm-5.374-4.78a8.25 8.25 0 0 0 1.255 2.088L17.246 5.633a8.25 8.25 0 0 0-3.34-1.66.751.751 0 0 1-.186.308L4.28 13.72a.75.75 0 0 1-.308.186c.101.425.236.844.405 1.251Zm-.627-3.03 8.377-8.377a8.25 8.25 0 0 0-8.377 8.377Z"/>
</svg>
